src/assets/svg/car-brands/simple-icons_chevrolet.svg

<svg width="32" height="32" viewBox="0 0 32 32" fill="currentColor" xmlns="http://www.w3.org/2000/svg">
<path d="M31.8734 13.0453H21.2267V10.9947C21.2269 10.9671 21.2216 10.9397 21.2112 10.9141C21.2007 10.8886 21.1853 10.8654 21.1659 10.8458C21.1464 10.8262 21.1233 10.8107 21.0978 10.8001C21.0723 10.7895 21.045 10.784 21.0174 10.784H10.984C10.9564 10.784 10.9291 10.7895 10.9036 10.8001C10.8781 10.8107 10.855 10.8262 10.8355 10.8458C10.8161 10.8654 10.8007 10.8886 10.7903 10.9141C10.7798 10.9397 10.7745 10.9671 10.7747 10.9947V13.0453H3.14404C3.02804 13.0453 2.8867 13.1387 2.82804 13.256L0.0267045 18.744C-0.0332955 18.8613 0.0120378 18.9533 0.129371 18.9533H10.7734V21.0067C10.7734 21.1213 10.8667 21.216 10.9827 21.216H21.016C21.132 21.216 21.2254 21.1227 21.2254 21.0067V18.9533H28.856C28.972 18.9533 29.1134 18.86 29.1734 18.744L31.9734 13.256C32.0334 13.14 31.988 13.0453 31.872 13.0453M28.5467 14.3733L26.888 17.6227H19.912V19.9H12.0934V17.6227H3.46004L5.12004 14.3733H12.096V12.0973H19.9147V14.3733H28.5467Z" fill="currentColor"/>
</svg>

<svg xmlns="http://www.w3.org/2000/svg" width="32" height="32" fill="currentColor" viewBox="0 0 32 32"><path d="M31.873 13.045H21.227v-2.05a.21.21 0 0 0-.21-.211H10.984a.21.21 0 0 0-.21.21v2.051h-7.63c-.116 0-.257.094-.316.211L.027 18.744c-.06.117-.015.21.102.21h10.644v2.053a.21.21 0 0 0 .21.209h10.033a.21.21 0 0 0 .21-.21v-2.053h7.63c.116 0 .257-.093.317-.209l2.8-5.488c.06-.116.015-.21-.101-.21m-3.325 1.327-1.659 3.25h-6.976V19.9h-7.819v-2.277H3.46l1.66-3.25h6.976v-2.276h7.819v2.276z"/></svg>
